X: 11684
M: C
L: 1/8
K: A
|:\
e2e>e e2d>d | c2c>c c2B>A |\
d2c>d e2d>c | d2(3(def) e2d2 |\
(3(cBc) (3(dcB) A2B2 |{AB} A2A>A A2z2 :|\
|:\
e2B>B B2c2 | B>AB>c B2c2 |
d2c2 B2A2 | B2B>B B2c>d |\
e2c>d e2f>d | e2c>d e2f>d |\
e>cd>B (3(cBA) (edc) | B2B>B B2E2 |\
(3(eag) (3(fed) c2B2 |{AB} A2A>A A2z2 :|



